svg/fluentui-system-icons/ic_fluent_mountain_trail_20_regular.svg

<svg width="20" height="20" viewBox="0 0 20 20" fill="none" xmlns="http://www.w3.org/2000/svg">
<path d="M15.482 17.0001H4C2.89543 17.0001 2 16.1047 2 15.0001V10.4978C2 9.72911 2.29504 8.98978 2.82425 8.43231L8.18687 2.78331C9.17262 1.74492 10.8274 1.74492 11.8131 2.78331L17.1758 8.43231C17.705 8.98978 18 9.72911 18 10.4978V15.0001C18 16.1047 17.1046 17.0001 16 17.0001H15.5193C15.5069 17.0006 15.4945 17.0006 15.482 17.0001ZM9.0924 3.30992C9.08045 3.32502 9.0675 3.33958 9.05355 3.35353C8.72131 3.68578 8.57943 3.95676 8.53197 4.16744C8.48683 4.36784 8.51626 4.56055 8.62278 4.76926C8.85754 5.22927 9.4259 5.69499 10.1899 6.19829C10.4374 6.36137 10.7083 6.52979 10.9828 6.70046C11.4927 7.0175 12.0151 7.34232 12.4237 7.65517C12.7464 7.90219 13.0495 8.17756 13.2542 8.48613C13.4657 8.80501 13.5921 9.1931 13.4851 9.62124C13.3817 10.0349 13.0777 10.3137 12.7554 10.5027C12.4319 10.6925 12.0275 10.8296 11.601 10.9383C10.9159 11.113 10.0759 11.2366 9.24665 11.3587C9.04725 11.3881 8.84846 11.4173 8.65257 11.4472C7.61269 11.6058 6.64959 11.7815 5.95076 12.0641C5.23341 12.3541 5 12.6659 5 13C5 13.0108 5.01271 13.1237 5.27839 13.329C5.52715 13.5212 5.9091 13.7238 6.40808 13.9279C7.4005 14.334 8.74335 14.7018 10.1108 15.0126C11.473 15.3223 12.8377 15.5705 13.8635 15.7415C14.3759 15.8269 14.8028 15.8929 15.1012 15.9375C15.2504 15.9598 15.3675 15.9767 15.447 15.9881L15.5324 16.0001H16C16.5523 16.0001 17 15.5524 17 15.0001V10.4978C17 9.98533 16.8033 9.49244 16.4505 9.1208L11.0879 3.47179C10.5531 2.90843 9.69007 2.85447 9.0924 3.30992ZM7.58816 4.86645L3.5495 9.1208C3.19669 9.49244 3 9.98533 3 10.4978V15.0001C3 15.5524 3.44772 16.0001 4 16.0001H9.94357C9.92544 15.996 9.90731 15.9919 9.88917 15.9878C8.50665 15.6735 7.0995 15.2913 6.02942 14.8535C5.49715 14.6357 5.01973 14.3929 4.66692 14.1203C4.33104 13.8607 4 13.4892 4 13C4 12.0164 4.7715 11.4623 5.5759 11.137C6.39882 10.8043 7.47433 10.6153 8.50185 10.4586C8.71298 10.4264 8.92219 10.3956 9.12808 10.3652C9.95251 10.2437 10.7243 10.1298 11.354 9.96932C11.7459 9.8694 12.0452 9.76001 12.2495 9.64015C12.4551 9.5196 12.5031 9.42583 12.5149 9.37871C12.5344 9.30075 12.5276 9.19989 12.4208 9.03887C12.3072 8.86755 12.1069 8.67207 11.8158 8.44919C11.4409 8.16217 10.9985 7.88774 10.5223 7.59238C10.2377 7.41591 9.94113 7.23193 9.63971 7.03336C8.89041 6.53971 8.10138 5.9475 7.73206 5.22383C7.67338 5.10884 7.62472 4.98957 7.58816 4.86645Z" fill="#212121"/>
</svg>

<svg xmlns="http://www.w3.org/2000/svg" width="20" height="20"><path d="M15.482 17H4a2 2 0 0 1-2-2v-4.502a3 3 0 0 1 .824-2.066l5.363-5.649a2.5 2.5 0 0 1 3.626 0l5.363 5.65A3 3 0 0 1 18 10.497V15a2 2 0 0 1-2 2h-.518ZM9.092 3.31a.504.504 0 0 1-.038.044c-.333.332-.475.603-.522.813a.857.857 0 0 0 .09.602c.236.46.804.926 1.568 1.43.247.162.518.33.793.501.51.317 1.032.642 1.44.955.323.247.627.523.831.831.212.319.338.707.231 1.135-.103.414-.407.693-.73.882-.323.19-.728.327-1.154.435-.685.175-1.525.299-2.354.42l-.594.09c-1.04.158-2.003.333-2.702.616-.718.29-.951.602-.951.936 0 .01.013.124.278.329.25.192.631.395 1.13.599.992.406 2.335.774 3.703 1.085a68.08 68.08 0 0 0 3.752.729 75.38 75.38 0 0 0 1.584.246l.085.012H16a1 1 0 0 0 1-1v-4.502a2 2 0 0 0-.55-1.377l-5.362-5.65a1.5 1.5 0 0 0-1.996-.161ZM7.588 4.866 3.55 9.121A2 2 0 0 0 3 10.498V15a1 1 0 0 0 1 1h5.944l-.055-.012c-1.382-.314-2.79-.697-3.86-1.134-.532-.218-1.01-.461-1.362-.734C4.33 13.86 4 13.49 4 13c0-.984.771-1.538 1.576-1.863.823-.333 1.898-.522 2.926-.678.211-.033.42-.063.626-.094.825-.121 1.596-.235 2.226-.396.392-.1.691-.209.896-.329.205-.12.253-.214.265-.261.02-.078.013-.18-.094-.34-.114-.171-.314-.367-.605-.59-.375-.287-.818-.561-1.294-.857a37.11 37.11 0 0 1-.882-.559c-.75-.493-1.539-1.086-1.908-1.81a2.105 2.105 0 0 1-.144-.357Z"/></svg>
